X: 1
T:Alessandrina
C:La Ciapa Rusa: Antologia.. 4b
M:6/8
L:1/8
K:G
e2f|g2g g2g|g3-gfg|a2g f2e|d3-d2g|\
g2d d2B|dcA c2e|edB cBA|GBd G3||
|:GBd GBd|GBd dcA|ABd ABd|ABd dBG|\
GBd GBd|GBd dcA|d2e fed|cBA GBd|G6:|
